svg/food/soup_pot_line.svg

<svg xmlns="http://www.w3.org/2000/svg" width="24" height="24" viewBox="0 0 24 24"><g fill="none"><path d="M24,0 L24,24 L0,24 L0,0 L24,0 Z M12.5935,23.2578 L12.5819,23.2595 L12.5109,23.295 L12.4919,23.2987 L12.4767,23.295 L12.4057,23.2595 C12.3958,23.2564 12.387,23.259 12.3821,23.2649 L12.378,23.2758 L12.3609,23.7031 L12.3659,23.7235 L12.3769,23.7357 L12.4805,23.8097 L12.4953,23.8136 L12.5071,23.8097 L12.6107,23.7357 L12.6233,23.7197 L12.6267,23.7031 L12.6096,23.2758 C12.6076,23.2657 12.601,23.2593 12.5935,23.2578 Z M12.8584,23.1453 L12.8445,23.1473 L12.6598,23.2397 L12.6499,23.2499 L12.6472,23.2611 L12.6651,23.6906 L12.6699,23.7034 L12.6784,23.7105 L12.8793,23.8032 C12.8914,23.8069 12.9022,23.803 12.9078,23.7952 L12.9118,23.7812 L12.8777,23.1665 C12.8753,23.1546 12.8674,23.147 12.8584,23.1453 Z M12.143,23.1473 C12.1332,23.1424 12.1222,23.1453 12.1156,23.1526 L12.1099,23.1665 L12.0758,23.7812 C12.0751,23.7927 12.0828,23.8019 12.0926,23.8046 L12.1083,23.8032 L12.3092,23.7105 L12.3186,23.7024 L12.3225,23.6906 L12.3404,23.2611 L12.3372,23.2485 L12.3278,23.2397 L12.143,23.1473 Z"/><path fill="#09244B" d="M3.70711,8.293 L4.41421,9.00011 C4.69009,9.27599 4.87705,9.62416 4.95664,10.00011 L13.5,10.00011 C14.0523,10.00011 14.5,10.4478 14.5,11.00011 C14.5,11.5524 14.0523,12.00011 13.5,12.00011 L5,12.00011 L5,17.00011 C5,18.1047 5.89543,19.00011 7,19.00011 L17,19.00011 C18.1046,19.00011 19,18.1047 19,17.00011 L19,12.00011 L18.5,12.00011 C17.9477,12.00011 17.5,11.5524 17.5,11.00011 C17.5,10.4478 17.9477,10.00011 18.5,10.00011 L19.0434,10.00011 C19.1229,9.62416 19.3099,9.27599 19.5858,9.00011 L20.2929,8.293 C20.6834,7.90248 21.3166,7.90248 21.7071,8.293 C22.0976,8.68352 22.0976,9.31669 21.7071,9.70721 L21,10.4143 L21,17.00011 C21,19.2092 19.2091,21.00011 17,21.00011 L7,21.00011 C4.79086,21.00011 3,19.2092 3,17.00011 L3,10.4143 L2.29289,9.70721 C1.90237,9.31669 1.90237,8.68352 2.29289,8.293 C2.68342,7.90248 3.31658,7.90248 3.70711,8.293 Z M19.4472,4.10568 C19.9412,4.35267 20.1414,4.95334 19.8944,5.44732 L14.8944,15.4473 C14.879,15.4783 14.8621,15.508 14.844,15.5366 C14.4022,16.9636 13.0721,18.0001 11.5,18.0001 C9.567,18.0001 8,16.4331 8,14.5001 L8,14.0001 C8,13.4478 8.44772,13.0001 9,13.0001 L13.882,13.0001 L18.1056,4.55289 C18.3526,4.05891 18.9532,3.85869 19.4472,4.10568 Z M12.9146,15.0001 L10.0854,15.0001 C10.2913,15.5827 10.8469,16.0001 11.5,16.0001 C12.1531,16.0001 12.7087,15.5827 12.9146,15.0001 Z M13.5547,2.16805 C14.0142,2.4744 14.1384,3.09527 13.832,3.5548 L13.6165,3.8781 C13.4248,4.16568 13.4627,4.5486 13.7071,4.793 C14.6256,5.71152 14.7681,7.15068 14.0476,8.23151 L13.8321,8.55481 C13.5257,9.01434 12.9048,9.13851 12.4453,8.83216 C11.9858,8.5258 11.8616,7.90493 12.1679,7.44541 L12.3835,7.12211 C12.5752,6.83453 12.5373,6.45161 12.2929,6.20721 C11.3744,5.28869 11.2319,3.84953 11.9524,2.76871 L12.1679,2.44541 C12.4743,1.98588 13.0952,1.8617 13.5547,2.16805 Z M8.16794,2.44541 C8.47429,1.98588 9.09516,1.8617 9.55469,2.16805 C9.98137786,2.45251786 10.1189464,3.00817898 9.89113308,3.45403321 L9.83204,3.5548 L9.61651,3.8781 C9.42479,4.16568 9.46271,4.5486 9.7071,4.793 C10.579675,5.665594 10.75191,7.0080656 10.1492134,8.0668079 L10.0476,8.23151 L9.83205,8.55481 C9.5257,9.01434 8.90483,9.13851 8.4453,8.83216 C8.01859357,8.54768286 7.88104959,7.99202107 8.10885848,7.5461748 L8.16795,7.44541 L8.38348,7.12211 C8.5752,6.83453 8.53729,6.45161 8.29289,6.20721 C7.420296,5.334616 7.24805103,3.9921444 7.850781,2.93341068 L7.9524,2.76871 L8.16794,2.44541 Z"/></g></svg>

<svg xmlns="http://www.w3.org/2000/svg" width="24" height="24"><g fill="none"><path d="M24 0v24H0V0zM12.594 23.258l-.012.002-.071.035-.02.004-.014-.004-.071-.036c-.01-.003-.019 0-.024.006l-.004.01-.017.428.005.02.01.013.104.074.015.004.012-.004.104-.074.012-.016.004-.017-.017-.427c-.002-.01-.009-.017-.016-.018m.264-.113-.014.002-.184.093-.01.01-.003.011.018.43.005.012.008.008.201.092c.012.004.023 0 .029-.008l.004-.014-.034-.614c-.003-.012-.01-.02-.02-.022m-.715.002a.023.023 0 0 0-.027.006l-.006.014-.034.614c0 .012.007.02.017.024l.015-.002.201-.093.01-.008.003-.011.018-.43-.003-.012-.01-.01z"/><path fill="#09244B" d="M3.707 8.293 4.414 9a2 2 0 0 1 .543 1H13.5a1 1 0 1 1 0 2H5v5a2 2 0 0 0 2 2h10a2 2 0 0 0 2-2v-5h-.5a1 1 0 1 1 0-2h.543a2 2 0 0 1 .543-1l.707-.707a1 1 0 1 1 1.414 1.414l-.707.707V17a4 4 0 0 1-4 4H7a4 4 0 0 1-4-4v-6.586l-.707-.707a1 1 0 0 1 1.414-1.414m15.74-4.187a1 1 0 0 1 .447 1.341l-5 10a.993.993 0 0 1-.05.09A3.502 3.502 0 0 1 8 14.5V14a1 1 0 0 1 1-1h4.882l4.224-8.447a1 1 0 0 1 1.341-.447M12.915 15h-2.83a1.5 1.5 0 0 0 2.83 0m.64-12.832a1 1 0 0 1 .277 1.387l-.216.323a.725.725 0 0 0 .091.915 2.725 2.725 0 0 1 .34 3.439l-.215.323a1 1 0 0 1-1.664-1.11l.216-.323a.725.725 0 0 0-.091-.915 2.725 2.725 0 0 1-.34-3.438l.215-.324a1 1 0 0 1 1.387-.277m-5.387.277A1 1 0 0 1 9.89 3.454l-.059.1-.215.324a.725.725 0 0 0 .09.915 2.725 2.725 0 0 1 .442 3.274l-.101.165-.216.323A1 1 0 0 1 8.11 7.546l.059-.1.215-.324a.725.725 0 0 0-.09-.915 2.725 2.725 0 0 1-.442-3.274l.101-.164z"/></g></svg>
